X:1
T: The Cabrach
T: 8x32S 3C (RoyGoldring, 24 Graded & Social)
T: 1CD, 1CU; set; alle; circle
P: Castlecraigs
C: By Muriel Johnstone (A Score and More)
C: Arr. T. Traub 6-1-2015
K: G
M: 4/4
L: 1/8
D2|"G"B2 A>B G<D D2|"G"B,>D G>A B<d e>d|"Am"c2 B>c A<E E2|"Am"C>E A>B c<e "D"f>e|"G"d2 g>f g<G A>B|"C"c>B A>G "D"F>E D>C|
"G"B,>D G<B "Am"C>E A<c|"D"(3BAG d>d "G"G2 g>f|| "Em"e<B g>f (3eBG (3Beg|"A"(3fed e>^c "D"d>A F>D|
"G"G2 B,>G C>G D>G|"Am"A<A c>B "B7"A2 B2|"Em"e<B G>f e>B G<F|"A"E<e e>^c "D"d>A F<D|"C"E>G =c<e "G"D>G B<d|"D"(3BAG d>d "G"G2 |]

